X:144
T:Sunset Waltz,The. CJF.144
R:Waltz
S:C.J.Fox MS, 1829/33, Beverley,E.Yorks.
N:”From Harts Gallopades” on title line. – PJ
B:Kidson Coll.Mitchell Lib.M1805
O:England
A:East Yorkshire
Z:vmp.P J Headford 2000 & 2008
M:3/8
L:1/8
Q:1/8=120
K:D
“p”D|DFA|dcB|ABA|F2F|\
A2G|E2G|B2A|F2D|!
DFA|dcB|ABA|F2A|B2A|EGF|DAc|d2D|!
” f”DAc|dcB|ABA|F2F|A2G|E2G|B2A|F2D|DAc|!
dcB|ABA|F2A|A/G/B/A/G/F/|E/G/A/B/c/A/|\
DD/F/A/F/|d2h||!
“p”A|A2G|E2E|B2A|F2d|cBA|GBA|A2F|d2A|!
A2G|E2E|B2A|F2A|GFE|EFG|A” D Capo”a/a/a/a/|a2|]

